ui/StatusQ/src/assets/img/icons/walletIcon.svg

<svg fill="#4360df" height="12" viewBox="0 0 12 12" width="12" xmlns="http://www.w3.org/2000/svg"><path d="m0 4.21337c0-1.28333.914-2.38466 2.17533-2.62066l7.702-1.444669c.40997-.076667.78937.238.78937.655333v1.196666c0 .36867-.2987.66667-.6667.66667h-7.588c-.25267 0-.48333.14266-.596.36866l-.14933.298c-.15334.30667.06933.66667.412.66667h9.25463c.368 0 .6667.29867.6667.66667v6.66669c0 .3686-.2987.6666-.6667.6666h-8.66663c-1.47267 0-2.66667-1.1933-2.66667-2.66663zm8.66667 3.78667c0 .55267.448 1 1 1 .55203 0 1.00003-.44733 1.00003-1 0-.552-.448-1-1.00003-1-.552 0-1 .448-1 1z"/></svg>

<svg width="12" height="12" viewBox="0 0 12 12" xmlns="http://www.w3.org/2000/svg" fill="#4360DF">
<path d="M0 4.21337C0 2.93004 0.914 1.82871 2.17533 1.59271L9.87733 0.148041C10.2873 0.071374 10.6667 0.386041 10.6667 0.803374V2.00004C10.6667 2.36871 10.368 2.66671 10 2.66671H2.412C2.15933 2.66671 1.92867 2.80937 1.816 3.03537L1.66667 3.33337C1.51333 3.64004 1.736 4.00004 2.07867 4.00004H11.3333C11.7013 4.00004 12 4.29871 12 4.66671V11.3334C12 11.702 11.7013 12 11.3333 12H2.66667C1.194 12 0 10.8067 0 9.33337V4.21337ZM8.66667 8.00004C8.66667 8.55271 9.11467 9.00004 9.66667 9.00004C10.2187 9.00004 10.6667 8.55271 10.6667 8.00004C10.6667 7.44804 10.2187 7.00004 9.66667 7.00004C9.11467 7.00004 8.66667 7.44804 8.66667 8.00004Z"/>
</svg>
